packages/astro-components-stencil/src/icons/space-bar.svg

<svg xmlns="http://www.w3.org/2000/svg" viewBox="0 0 24 24"><g xmlns="http://www.w3.org/2000/svg" id="space-bar" fill-rule="nonzero">
            <path d="M18 10v3H6v-3c0-.55-.45-1-1-1s-1 .45-1 1v4c0 .55.45 1 1 1h14c.55 0 1-.45 1-1v-4c0-.55-.45-1-1-1s-1 .45-1 1z"/>
        </g></svg>

<svg width="24" height="24" viewBox="0 0 24 24" fill="none" xmlns="http://www.w3.org/2000/svg">
<path d="M18 10V13H6V10C6 9.45 5.55 9 5 9C4.45 9 4 9.45 4 10V14C4 14.55 4.45 15 5 15H19C19.55 15 20 14.55 20 14V10C20 9.45 19.55 9 19 9C18.45 9 18 9.45 18 10Z" fill="black"/>
</svg>
